X:1
T:Kensington New, 87.87.87
T:Kensington New, 87.87.87
T:James Tilleard, 1866
T:Public Domain Courtesy of the Cyber Hymnal™
C:James Tilleard, 1866
Z:Public Domain
Z:Courtesy of the Cyber Hymnal™
%%score ( 1 2 ) 3
L:1/8
Q:1/4=110
M:4/4
K:E
V:1 treble 
V:2 treble 
V:3 bass 
V:1
 B,2 [B,E]2 [DG]3 [DF] | E2 [EG]2 [FB]2 [FA]2 | [EG]2 [DG]2 [CF]2 C2 | [B,E]2 [DF]2 E4 | %4
 [B,E]2 [EG]2 [Gc]3 [GB] | [F^A]2 [Ac]2 [Ae]2 [Bd]2 | [^Ec]2 [EG]2 [=EB]2 [E^A]2 | %7
 [Ed]2 [Ec]2 [DB]4 | [Ee]3 B [Bd]2 [Ac]2 | [FB]3 F [FA]2 [EG]2 | [CF]3 C [B,E]2 [B,D]2 | %11
 [DG]2 [DF]2 E4 |] %12
V:2
 B,2 x6 | E2 x6 | x6 C2 | x4 E4 | x8 | x8 | x8 | x8 | x3 B x4 | x3 F x4 | x3 C x4 | x4 E4 |] %12
V:3
 [E,G,]2 [E,G,]2 [B,,B,]3 [B,,A,] | [C,G,]2 [C,C]2 [D,B,]2 [D,B,]2 | %2
 [E,B,]2 [G,,^B,]2 [A,,C]2 [A,,F,]2 | [B,,G,]2 [B,,A,]2 [E,G,]4 | [E,G,]2 [E,B,]2 [C,E]3 [C,D] | %5
 [F,C]2 [F,C]2 [F,C]2 [G,B,]2 | [C,G,]2 [C,C]2 [F,C]2 [F,C]2 | [F,^A,]2 [F,A,]2 [B,,B,]4 | %8
 [G,B,]3 [G,E] [A,E]2 [A,E]2 | [B,D]3 [B,D] [^B,D]2 [CE]2 | [F,^A,]3 [F,A,] [B,,=A,]2 [B,,A,]2 | %11
 [B,,A,]2 [B,,A,]2 [E,G,]4 |] %12

